X: 1
T: Uppsalapolskan
R: hambo-polska
Z: John Chambers <jc@trillian.mit.edu>
M: 3/4
L: 1/8
K: D
|: "D"(a>b) (ag) f>e | "A7"(3(dcd) e2>>f2 | (3(gfg) (ag) e>c | "D"d>f a2 "(A)"{b}a2- \
|  "D"(a>b) (a>g) f>e | (3(dcd) "A7"e2>>f2 | (3(gfg) (a>g) e>c | "D"d2 d4 :|
|: "G"{=c}B2 B2- B2 | B>A G>A B>"#"c | d2 d2>>d2 | "A7"c2 c2- c2 \
| c>B A>B c>d | e2 e2>>f2 | (3gfg a>g e>c | "D"d2 d4 :|
|: "D"{e}f2 f4 | {f}a2 a4 | a>b a>g f>e | "A7"dcd e4 \
| "G"{e}g2 g4 | "Em"{g}b2 b4 | "A7"a>b a>g e>c | "D"d2 d4 :|

%%sep 1 1 500

